dist/images/icons/user_order.svg

<svg width="44" height="40" viewBox="0 0 44 40" fill="none" xmlns="http://www.w3.org/2000/svg">
<path d="M4.4002 3.2H39.6002V1.2H4.4002V3.2ZM40.8002 4.4V35.2H42.8002V4.4H40.8002ZM39.6002 36.4H4.4002V38.4H39.6002V36.4ZM3.2002 35.2V4.4H1.2002V35.2H3.2002ZM4.4002 36.4C3.73745 36.4 3.2002 35.8627 3.2002 35.2H1.2002C1.2002 36.9673 2.63289 38.4 4.4002 38.4V36.4ZM40.8002 35.2C40.8002 35.8627 40.2629 36.4 39.6002 36.4V38.4C41.3675 38.4 42.8002 36.9673 42.8002 35.2H40.8002ZM39.6002 3.2C40.2629 3.2 40.8002 3.73726 40.8002 4.4H42.8002C42.8002 2.63269 41.3675 1.2 39.6002 1.2V3.2ZM4.4002 1.2C2.63288 1.2 1.2002 2.63269 1.2002 4.4H3.2002C3.2002 3.73726 3.73745 3.2 4.4002 3.2V1.2Z" fill="#555555"/>
<path d="M29.6004 11C29.6004 10.4477 29.1527 10 28.6004 10C28.0481 10 27.6004 10.4477 27.6004 11L29.6004 11ZM16.4004 11C16.4004 10.4477 15.9527 10 15.4004 10C14.8481 10 14.4004 10.4477 14.4004 11L16.4004 11ZM27.6004 11C27.6004 14.0928 25.0932 16.6 22.0004 16.6L22.0004 18.6C26.1978 18.6 29.6004 15.1974 29.6004 11L27.6004 11ZM22.0004 16.6C18.9076 16.6 16.4004 14.0928 16.4004 11L14.4004 11C14.4004 15.1974 17.803 18.6 22.0004 18.6L22.0004 16.6Z" fill="#555555"/>
</svg>

<svg width="44" height="40" fill="none" xmlns="http://www.w3.org/2000/svg"><path d="M4.4 3.2h35.2v-2H4.4v2zm36.4 1.2v30.8h2V4.4h-2zm-1.2 32H4.4v2h35.2v-2zM3.2 35.2V4.4h-2v30.8h2zm1.2 1.2a1.2 1.2 0 01-1.2-1.2h-2a3.2 3.2 0 003.2 3.2v-2zm36.4-1.2a1.2 1.2 0 01-1.2 1.2v2a3.2 3.2 0 003.2-3.2h-2zm-1.2-32a1.2 1.2 0 011.2 1.2h2a3.2 3.2 0 00-3.2-3.2v2zm-35.2-2a3.2 3.2 0 00-3.2 3.2h2a1.2 1.2 0 011.2-1.2v-2zM29.6 11a1 1 0 10-2 0h2zm-13.2 0a1 1 0 10-2 0h2zm11.2 0a5.6 5.6 0 01-5.6 5.6v2a7.6 7.6 0 007.6-7.6h-2zM22 16.6a5.6 5.6 0 01-5.6-5.6h-2a7.6 7.6 0 007.6 7.6v-2z" fill="#555"/></svg>
